X:1
T:Title
%%score { ( 1 3 ) | ( 2 4 ) }
L:1/8
Q:1/4=94
M:3/4
K:G
V:1 treble nm="Grand Piano"
V:3 treble 
V:2 bass 
V:4 bass 
V:1
 [G,B,D]2 [G,B,D]2 [B,DG]2 | [G,CE]3 [G,CE] [CEA]2 | [A,DF]2 [A,DF]2 [CDA]2 | %3
w: Robert~Lowry * *|||
 [B,DG]3 [B,DG] [DGB]2 | [^CEA]2 [A,EG]2 [G,CE]2 | D6 | B2 B2 B2 | z2 z2 [FA]2 | G2 G2 G2 | %9
w: ||||||
 [^DB]3 [DF] [DF]2 | [G,E]2 [G,E]2 [G,CE]2 | [G,B,D]3 [B,DG] [DGB]2 | [CEA]2 [B,DG]2 [A,DF]2 | %13
w: ||||
 [B,DG]6 |] %14
w: |
V:2
 G,,2 G,,2 G,,2 | C,3 C, A,,2 | D,2 D,2 D,2 | G,,3 G,, G,,2 | A,,2 A,,2 A,,2 | [D,F,]6 | %6
 [G,D]2 [G,D]2 [G,D]2 | [D,A,]3 [D,D] .[D,D]2 | [E,B,E]2 [E,B,E]2 [E,B,E]2 | %9
 [B,,B,]3 [B,,B,] B,A, | C,2 C,2 C,2 | G,,3 G,, G,,2 | C,2 D,2 D,2 | G,,6 |] %14
V:3
 x6 | x6 | x6 | x6 | x6 | x6 | x6 | [Fd]3 [FA] z C | x6 | x6 | x6 | x6 | x6 | x6 |] %14
V:4
 x6 | x6 | x6 | x6 | x6 | x6 | x6 | x6 | x6 | z2 z2 B,,2 | x6 | x6 | x6 | x6 |] %14

